Sources/FrostedUI/Resources/Icons.xcassets/pencil12.imageset/pencil-12.svg

<svg width="12" height="12" viewBox="0 0 12 12" fill="none" xmlns="http://www.w3.org/2000/svg" data-fui-icon="true">
  <path
    d="M9.06256 0C9.78145 7.62424e-05 10.4711 0.285681 10.9795 0.793929L11.2061 1.02049C11.7143 1.52894 12 2.21852 12 2.93744C12 3.65636 11.7143 4.34595 11.2061 4.85439L4.78042 11.28C4.66583 11.3946 4.51698 11.4689 4.3566 11.492L0.856672 11.9919C0.623055 12.0253 0.386879 11.9468 0.219966 11.78C0.0530443 11.6131 -0.0253279 11.377 0.00805648 11.1433L0.508046 7.6434C0.531057 7.48292 0.60532 7.33423 0.719956 7.21958L7.14561 0.793929C7.65408 0.285715 8.34364 0 9.06256 0ZM1.95626 8.10335L1.63302 10.366L3.89567 10.0428L8.18953 5.74988L6.25012 3.81047L1.95626 8.10335ZM9.06256 1.49997C8.74145 1.49997 8.4333 1.62754 8.20613 1.85445L7.31064 2.74994L9.25006 4.68936L10.1455 3.79387C10.3725 3.56672 10.5 3.25855 10.5 2.93744C10.5 2.61634 10.3725 2.30816 10.1455 2.08101L9.91899 1.85445C9.69187 1.62751 9.38364 1.50005 9.06256 1.49997Z"
    fill="currentColor"
  />
</svg>

<svg xmlns="http://www.w3.org/2000/svg" width="12" height="12" fill="none" data-fui-icon="true" viewBox="0 0 12 12"><path fill="currentColor" d="M9.063 0c.718 0 1.408.286 1.916.794l.227.226a2.71 2.71 0 0 1 0 3.834L4.78 11.28a.75.75 0 0 1-.423.212l-3.5.5a.75.75 0 0 1-.849-.849l.5-3.5A.75.75 0 0 1 .72 7.22L7.146.794A2.7 2.7 0 0 1 9.063 0M1.956 8.103l-.323 2.263 2.263-.323L8.19 5.75 6.25 3.81zM9.063 1.5c-.322 0-.63.128-.857.354l-.895.896 1.94 1.94.895-.896a1.21 1.21 0 0 0 0-1.713l-.227-.227a1.2 1.2 0 0 0-.856-.354"/></svg>
